SVG_Azure_All/Blockchain Token.svg

<?xml version="1.0" encoding="UTF-8" standalone="no"?>
<!-- Generated by Microsoft Visio, SVG Export Blockchain Token.svg Page-1 -->

<svg
   xmlns:dc="http://purl.org/dc/elements/1.1/"
   xmlns:cc="http://creativecommons.org/ns#"
   xmlns:rdf="http://www.w3.org/1999/02/22-rdf-syntax-ns#"
   xmlns:svg="http://www.w3.org/2000/svg"
   xmlns="http://www.w3.org/2000/svg"
   xmlns:sodipodi="http://sodipodi.sourceforge.net/DTD/sodipodi-0.dtd"
   xmlns:inkscape="http://www.inkscape.org/namespaces/inkscape"
   width="0.67219549in"
   height="0.78741324in"
   viewBox="0 0 48.398061 56.693997"
   xml:space="preserve"
   class="st6"
   version="1.1"
   id="svg59"
   sodipodi:docname="Blockchain Token.svg"
   style="font-size:12px;overflow:visible;color-interpolation-filters:sRGB;fill:none;fill-rule:evenodd;stroke-linecap:square;stroke-miterlimit:3"
   inkscape:version="0.92.5 (2060ec1f9f, 2020-04-08)"><metadata
   id="metadata65"><rdf:RDF><cc:Work
       rdf:about=""><dc:format>image/svg+xml</dc:format><dc:type
         rdf:resource="http://purl.org/dc/dcmitype/StillImage" /></cc:Work></rdf:RDF></metadata><defs
   id="defs63" /><sodipodi:namedview
   pagecolor="#ffffff"
   bordercolor="#666666"
   borderopacity="1"
   objecttolerance="10"
   gridtolerance="10"
   guidetolerance="10"
   inkscape:pageopacity="0"
   inkscape:pageshadow="2"
   inkscape:window-width="640"
   inkscape:window-height="480"
   id="namedview61"
   showgrid="false"
   inkscape:zoom="1.3623198"
   inkscape:cx="32.265329"
   inkscape:cy="37.800635"
   inkscape:window-x="0"
   inkscape:window-y="0"
   inkscape:window-maximized="0"
   inkscape:current-layer="svg59" />
	<style
   type="text/css"
   id="style2">
	<![CDATA[
		.st1 {fill:#773adc;stroke:none;stroke-linecap:butt;stroke-width:36.6164}
		.st2 {fill:#b796f9;stroke:none;stroke-linecap:butt;stroke-width:36.6164}
		.st3 {fill:#a67af4;stroke:none;stroke-linecap:butt;stroke-width:36.6164}
		.st4 {fill:#32bedd;stroke:none;stroke-linecap:butt;stroke-width:36.6164}
		.st5 {fill:#50e6ff;stroke:none;stroke-linecap:butt;stroke-width:36.6164}
		.st6 {fill:none;fill-rule:evenodd;font-size:12px;overflow:visible;stroke-linecap:square;stroke-miterlimit:3}
	]]>
	</style>

	<g
   id="g57"
   transform="translate(-36.616681,-36.6196)">
		<title
   id="title4">Page-1</title>
		<g
   id="group7238-1"
   transform="translate(36.6164,-36.6164)">
			<title
   id="title6">Blockchain Token</title>
			<g
   id="group7239-2">
				<title
   id="title8">layer1</title>
				<g
   id="shape7240-3"
   transform="translate(18.6886,-12.0434)">
					<title
   id="title10">path2</title>
					<path
   d="m 18.69,96.47 v 22.27 L 0,129.93 v -22.31 z"
   class="st1"
   id="path12"
   inkscape:connector-curvature="0"
   style="fill:#773adc;stroke:none;stroke-width:36.61640167;stroke-linecap:butt" />
				</g>
				<g
   id="shape7241-5"
   transform="translate(0.0311547,-34.314)">
					<title
   id="title15">path4</title>
					<path
   d="M 37.35,118.74 18.66,129.93 0,118.74 18.66,107.55 Z"
   class="st2"
   id="path17"
   inkscape:connector-curvature="0"
   style="fill:#b796f9;stroke:none;stroke-width:36.61640167;stroke-linecap:butt" />
				</g>
				<g
   id="shape7242-7"
   transform="translate(0,-12.0434)">
					<title
   id="title20">path6</title>
					<path
   d="m 18.69,107.66 v 22.27 L 0,118.74 V 96.47 Z"
   class="st3"
   id="path22"
   inkscape:connector-curvature="0"
   style="fill:#a67af4;stroke:none;stroke-width:36.61640167;stroke-linecap:butt" />
				</g>
				<g
   id="shape7243-9"
   transform="translate(12.7565,-5.33295)">
					<title
   id="title25">path8</title>
					<path
   d="m 19.6,119.99 c 0,0.1 -0.02,0.21 -0.04,0.31 -0.02,0.11 -0.03,0.18 -0.05,0.26 l -0.09,0.3 c -0.03,0.1 -0.06,0.16 -0.09,0.24 l -0.15,0.32 a 4.46061,4.56621 0 0 1 -0.25,0.43 l -0.04,0.06 a 4.76234,4.87509 0 0 1 -0.31,0.41 l -0.06,0.08 -0.42,0.42 a 3.20393,3.27978 0 0 1 -0.31,0.25 l -0.28,0.22 -0.35,0.25 -0.37,0.24 a 10.3334,10.5781 0 0 1 -0.93,0.48 l -0.32,0.12 -0.77,0.3 -0.31,0.1 -0.51,0.15 -0.39,0.1 -0.54,0.12 -0.37,0.08 -1.12,0.16 c -0.12,0 -0.24,0.02 -0.36,0.03 l -0.66,0.05 H 9.17 l -0.5,-0.02 -0.92,-0.11 -0.44,-0.07 -0.52,-0.09 -0.41,-0.09 -0.62,-0.15 -0.33,-0.1 -1.06,-0.36 -0.5,-0.21 -0.25,-0.12 -0.72,-0.38 A 4.92098,5.03748 0 0 1 0,119.63 v 4.48 a 4.92098,5.03748 -180 0 0 2.9,4.14 l 0.72,0.38 c 0.08,0.04 0.17,0.08 0.26,0.11 l 0.43,0.2 0.06,0.02 1.14,0.39 c 0.08,0.03 0.17,0.04 0.25,0.07 l 0.62,0.15 0.16,0.04 0.25,0.04 0.52,0.1 0.21,0.03 c 0.08,0 0.15,0.02 0.23,0.03 l 0.49,0.06 c 0.08,0 0.15,0.02 0.23,0.03 H 8.7 l 0.49,0.03 h 1.42 c 0.22,-0.02 0.44,-0.03 0.66,-0.05 h 0.35 l 1.12,-0.16 h 0.06 l 0.31,-0.07 0.55,-0.12 0.38,-0.1 0.51,-0.15 0.11,-0.03 c 0.05,-0.02 0.11,-0.05 0.17,-0.07 l 0.78,-0.3 0.31,-0.12 0.93,-0.47 0.13,-0.08 c 0.09,-0.05 0.16,-0.11 0.25,-0.17 l 0.35,-0.24 0.27,-0.22 0.32,-0.26 0.05,-0.05 c 0.13,-0.12 0.25,-0.24 0.36,-0.36 l 0.06,-0.08 0.19,-0.22 a 2.11521,2.16529 -180 0 0 0.13,-0.19 l 0.04,-0.07 0.22,-0.35 0.04,-0.07 a 3.35635,3.43581 -180 0 0 0.14,-0.32 l 0.08,-0.19 0.03,-0.06 a 3.14171,3.21609 -180 0 0 0.08,-0.3 l 0.06,-0.2 v -0.06 a 3.39056,3.47083 -180 0 0 0.03,-0.32 c 0.01,-0.1 0.03,-0.14 0.03,-0.2 v -4.61 l -0.04,0.32 z"
   class="st4"
   id="path27"
   inkscape:connector-curvature="0"
   style="fill:#32bedd;stroke:none;stroke-width:36.61640167;stroke-linecap:butt" />
				</g>
				<g
   id="shape7244-11"
   transform="translate(11.7616,-9.78628)">
					<title
   id="title30">path10</title>
					<path
   d="m 17.72,119.98 c 3.85,2.28 3.87,5.97 0.04,8.24 a 15.3197,15.6824 0 0 1 -13.89,0 C 0.02,125.94 0,122.25 3.83,119.98 a 15.3042,15.6665 0 0 1 13.89,0 z"
   class="st5"
   id="path32"
   inkscape:connector-curvature="0"
   style="fill:#50e6ff;stroke:none;stroke-width:36.61640167;stroke-linecap:butt" />
				</g>
				<g
   id="shape7245-13"
   transform="translate(28.4899)">
					<title
   id="title35">path12</title>
					<path
   d="m 19.65,119.98 c 0,0.11 -0.01,0.21 -0.04,0.32 -0.01,0.11 -0.04,0.17 -0.05,0.26 l -0.09,0.3 c -0.03,0.09 -0.06,0.16 -0.09,0.24 l -0.14,0.32 c -0.06,0.11 -0.16,0.32 -0.25,0.43 l -0.05,0.06 -0.31,0.42 -0.06,0.07 -0.41,0.42 a 4.54149,4.649 0 0 1 -0.32,0.25 l -0.27,0.23 c -0.09,0.07 -0.23,0.15 -0.36,0.23 l -0.37,0.25 a 9.57445,9.80112 0 0 1 -0.93,0.48 l -0.31,0.13 -0.77,0.3 -0.28,0.09 -0.51,0.15 -0.39,0.11 -0.54,0.11 -0.37,0.08 -1.12,0.16 -0.36,0.03 -0.66,0.05 H 9.19 c -0.17,0 -0.34,0 -0.5,-0.03 -0.16,-0.04 -0.31,-0.03 -0.45,-0.04 l -0.49,-0.06 -0.44,-0.06 -0.52,-0.1 -0.41,-0.08 -0.62,-0.15 -0.33,-0.1 -1.06,-0.37 -0.5,-0.21 -0.25,-0.11 -0.72,-0.39 A 4.91787,5.0343 0 0 1 0,119.63 v 4.48 a 4.92098,5.03748 -180 0 0 2.9,4.14 l 0.72,0.38 0.25,0.11 0.44,0.2 0.06,0.02 c 0.35,0.13 0.7,0.26 1.06,0.36 l 0.08,0.03 0.25,0.07 0.62,0.16 c 0.06,0 0.11,0.03 0.17,0.03 l 0.25,0.05 0.52,0.09 c 0.07,0 0.13,0.03 0.2,0.04 l 0.24,0.03 0.49,0.06 0.23,0.02 H 8.7 c 0.16,0 0.33,0.02 0.5,0.03 h 1.41 c 0.22,0 0.44,-0.04 0.67,-0.05 0.08,0 0.17,0 0.26,-0.02 h 0.08 l 1.12,-0.16 h 0.06 l 0.31,-0.07 0.54,-0.12 0.39,-0.1 0.51,-0.15 0.1,-0.03 0.18,-0.07 0.77,-0.3 0.31,-0.12 a 10.3334,10.5781 -180 0 0 0.93,-0.48 l 0.13,-0.07 c 0.09,-0.06 0.17,-0.12 0.25,-0.18 l 0.35,-0.24 0.28,-0.22 0.31,-0.26 0.06,-0.05 a 4.76545,4.87827 -180 0 0 0.35,-0.36 l 0.06,-0.08 0.19,-0.22 0.13,-0.19 0.05,-0.06 0.21,-0.32 0.04,-0.08 c 0.06,-0.1 0.09,-0.2 0.14,-0.32 l 0.09,-0.18 v -0.06 c 0.03,-0.11 0.05,-0.21 0.08,-0.31 l 0.06,-0.2 v -0.06 c 0.02,-0.1 0.02,-0.21 0.03,-0.31 0.01,-0.11 0.03,-0.14 0.03,-0.21 v -4.55 c 0.02,0.08 0,0.18 -0.01,0.28 z"
   class="st4"
   id="path37"
   inkscape:connector-curvature="0"
   style="fill:#32bedd;stroke:none;stroke-width:36.61640167;stroke-linecap:butt" />
				</g>
				<g
   id="shape7246-15"
   transform="translate(27.5169,-4.43519)">
					<title
   id="title40">path14</title>
					<path
   d="m 17.72,119.98 a 4.2522,4.35287 0 0 1 0.04,8.24 15.3073,15.6697 0 0 1 -13.89,0 C 0.02,125.94 0,122.25 3.83,119.98 a 15.3104,15.6729 0 0 1 13.9,0 z"
   class="st5"
   id="path42"
   inkscape:connector-curvature="0"
   style="fill:#50e6ff;stroke:none;stroke-width:36.61640167;stroke-linecap:butt" />
				</g>
				<g
   id="shape7247-17"
   transform="translate(28.4468,-9.75338)">
					<title
   id="title45">path16</title>
					<path
   d="m 19.72,119.69 c 0,0.1 -0.01,0.2 -0.03,0.3 l -0.03,0.32 c -0.02,0.1 -0.05,0.17 -0.06,0.25 l -0.08,0.3 c -0.04,0.09 -0.06,0.16 -0.1,0.24 l -0.14,0.32 c -0.06,0.11 -0.15,0.32 -0.25,0.43 l -0.05,0.06 -0.31,0.42 -0.06,0.07 a 6.40785,6.55955 0 0 1 -0.41,0.42 4.54149,4.649 0 0 1 -0.31,0.26 l -0.28,0.22 -0.35,0.24 -0.38,0.25 a 9.92595,10.1609 0 0 1 -0.93,0.47 l -0.31,0.13 -0.78,0.3 -0.31,0.1 -0.5,0.15 -0.39,0.1 -0.54,0.12 -0.38,0.08 -1.12,0.15 -0.35,0.04 -0.66,0.04 H 9.2 c -0.17,0 -0.34,0 -0.5,-0.03 -0.17,-0.03 -0.31,-0.02 -0.45,-0.04 L 7.75,125.34 7.32,125.28 6.8,125.18 6.39,125.1 5.77,124.94 5.43,124.85 C 5.07,124.74 4.72,124.62 4.38,124.48 L 3.88,124.27 3.62,124.16 2.9,123.77 A 4.92409,5.04067 0 0 1 0,119.63 v 4.48 a 4.92409,5.04067 -180 0 0 2.9,4.14 l 0.72,0.38 0.25,0.11 0.45,0.2 0.04,0.02 1.06,0.36 0.09,0.04 0.24,0.06 0.63,0.15 c 0.05,0 0.1,0.04 0.16,0.04 l 0.24,0.05 0.52,0.09 c 0.08,0 0.14,0.03 0.21,0.04 l 0.23,0.03 0.49,0.06 0.24,0.02 h 0.22 c 0.16,0 0.33,0.02 0.49,0.03 h 1.41 c 0.23,0 0.45,-0.03 0.67,-0.05 0.08,0 0.18,0 0.27,-0.02 h 0.08 l 1.12,-0.16 h 0.06 l 0.31,-0.07 0.54,-0.12 0.39,-0.1 0.51,-0.15 0.1,-0.03 c 0.06,-0.02 0.12,-0.05 0.17,-0.07 l 0.78,-0.3 0.31,-0.12 a 9.95394,10.1896 -180 0 0 0.94,-0.48 l 0.11,-0.07 0.26,-0.18 0.35,-0.24 0.28,-0.22 0.31,-0.25 0.06,-0.06 a 5.44356,5.57244 -180 0 0 0.35,-0.36 l 0.06,-0.08 0.19,-0.23 0.13,-0.18 0.05,-0.07 a 3.67052,3.75741 -180 0 0 0.22,-0.35 l 0.03,-0.07 c 0.06,-0.11 0.1,-0.21 0.15,-0.32 l 0.08,-0.18 v -0.07 a 3.20393,3.27978 -180 0 0 0.08,-0.3 l 0.06,-0.2 v -0.05 c 0.02,-0.11 0.02,-0.22 0.03,-0.32 0.01,-0.11 0.03,-0.14 0.03,-0.21 v -0.09 z"
   class="st4"
   id="path47"
   inkscape:connector-curvature="0"
   style="fill:#32bedd;stroke:none;stroke-width:36.61640167;stroke-linecap:butt" />
				</g>
				<g
   id="shape7248-19"
   transform="rotate(-89.838,17.022529,98.518092)">
					<title
   id="title50">ellipse18</title>
					<ellipse
   cx="5.69241"
   cy="119.867"
   rx="5.69241"
   ry="10.059"
   class="st5"
   id="ellipse52"
   style="fill:#50e6ff;stroke:none;stroke-width:36.61640167;stroke-linecap:butt" />
				</g>
			</g>
		</g>
	</g>
</svg>

<?xml version="1.0" encoding="UTF-8" standalone="no"?>
<!DOCTYPE svg PUBLIC "-//W3C//DTD SVG 1.1//EN" "http://www.w3.org/Graphics/SVG/1.1/DTD/svg11.dtd">
<!-- Generated by Microsoft Visio, SVG Export Blockchain Token.svg Page-1 -->
<svg xmlns="http://www.w3.org/2000/svg" xmlns:xlink="http://www.w3.org/1999/xlink" xmlns:ev="http://www.w3.org/2001/xml-events"
		width="1.68932in" height="1.80452in" viewBox="0 0 121.631 129.926" xml:space="preserve" color-interpolation-filters="sRGB"
		class="st6">
	<style type="text/css">
	<![CDATA[
		.st1 {fill:#773adc;stroke:none;stroke-linecap:butt;stroke-width:36.6164}
		.st2 {fill:#b796f9;stroke:none;stroke-linecap:butt;stroke-width:36.6164}
		.st3 {fill:#a67af4;stroke:none;stroke-linecap:butt;stroke-width:36.6164}
		.st4 {fill:#32bedd;stroke:none;stroke-linecap:butt;stroke-width:36.6164}
		.st5 {fill:#50e6ff;stroke:none;stroke-linecap:butt;stroke-width:36.6164}
		.st6 {fill:none;fill-rule:evenodd;font-size:12px;overflow:visible;stroke-linecap:square;stroke-miterlimit:3}
	]]>
	</style>

	<g>
		<title>Page-1</title>
		<g id="group7070-1" transform="translate(36.6164,-36.6164)">
			<title>Blockchain Token</title>
			<g id="group7071-2">
				<title>layer1</title>
				<g id="shape7072-3" transform="translate(18.6886,-12.0434)">
					<title>path2</title>
					<path d="M18.69 96.47 L18.69 118.74 L0 129.93 L0 107.62 L18.69 96.47 L18.69 96.47 Z" class="st1"/>
				</g>
				<g id="shape7073-5" transform="translate(0.0311547,-34.314)">
					<title>path4</title>
					<path d="M37.35 118.74 L18.66 129.93 L0 118.74 L18.66 107.55 L37.35 118.74 L37.35 118.74 Z" class="st2"/>
				</g>
				<g id="shape7074-7" transform="translate(-2.3781E-13,-12.0434)">
					<title>path6</title>
					<path d="M18.69 107.66 L18.69 129.93 L0 118.74 L0 96.47 L18.69 107.66 L18.69 107.66 Z" class="st3"/>
				</g>
				<g id="shape7075-9" transform="translate(12.7565,-5.33295)">
					<title>path8</title>
					<path d="M19.6 119.99 C19.6 120.09 19.58 120.2 19.56 120.3 C19.54 120.41 19.53 120.48 19.51 120.56 L19.42 120.86
								 C19.39 120.96 19.36 121.02 19.33 121.1 L19.18 121.42 A4.46061 4.56621 0 0 1 18.93 121.85 L18.89
								 121.91 A4.76234 4.87509 0 0 1 18.58 122.32 L18.52 122.4 L18.1 122.82 A3.20393 3.27978 0 0 1 17.79
								 123.07 L17.51 123.29 L17.16 123.54 L16.79 123.78 A10.3334 10.5781 0 0 1 15.86 124.26 L15.54 124.38
								 L14.77 124.68 L14.46 124.78 L13.95 124.93 L13.56 125.03 L13.02 125.15 L12.65 125.23 L11.53 125.39
								 C11.41 125.39 11.29 125.41 11.17 125.42 L10.51 125.47 L9.17 125.47 L8.67 125.45 L7.75 125.34 L7.31
								 125.27 L6.79 125.18 L6.38 125.09 L5.76 124.94 L5.43 124.84 L4.37 124.48 L3.87 124.27 L3.62 124.15
								 L2.9 123.77 A4.92098 5.03748 0 0 1 0 119.63 L0 124.11 A4.92098 5.03748 -180 0 0 2.9 128.25 L3.62
								 128.63 C3.7 128.67 3.79 128.71 3.88 128.74 L4.31 128.94 L4.37 128.96 L5.51 129.35 C5.59 129.38 5.68
								 129.39 5.76 129.42 L6.38 129.57 L6.54 129.61 L6.79 129.65 L7.31 129.75 L7.52 129.78 C7.6 129.78
								 7.67 129.8 7.75 129.81 L8.24 129.87 C8.32 129.87 8.39 129.89 8.47 129.9 L8.7 129.9 L9.19 129.93
								 L10.61 129.93 C10.83 129.91 11.05 129.9 11.27 129.88 L11.62 129.88 L12.74 129.72 L12.8 129.72 L13.11
								 129.65 L13.66 129.53 L14.04 129.43 L14.55 129.28 L14.66 129.25 C14.71 129.23 14.77 129.2 14.83 129.18
								 L15.61 128.88 L15.92 128.76 L16.85 128.29 L16.98 128.21 C17.07 128.16 17.14 128.1 17.23 128.04 L17.58
								 127.8 L17.85 127.58 L18.17 127.32 L18.22 127.27 C18.35 127.15 18.47 127.03 18.58 126.91 L18.64 126.83
								 L18.83 126.61 A2.11521 2.16529 -180 0 0 18.96 126.42 L19 126.35 L19.22 126 L19.26 125.93 A3.35635
								 3.43581 -180 0 0 19.4 125.61 L19.48 125.42 L19.51 125.36 A3.14171 3.21609 -180 0 0 19.59 125.06
								 L19.65 124.86 L19.65 124.8 A3.39056 3.47083 -180 0 0 19.68 124.48 C19.69 124.38 19.71 124.34 19.71
								 124.28 L19.71 119.67 L19.67 119.99 L19.6 119.99 Z" class="st4"/>
				</g>
				<g id="shape7076-11" transform="translate(11.7616,-9.78628)">
					<title>path10</title>
					<path d="M17.72 119.98 C21.57 122.26 21.59 125.95 17.76 128.22 A15.3197 15.6824 0 0 1 3.87 128.22 C0.02 125.94
								 0 122.25 3.83 119.98 A15.3042 15.6665 0 0 1 17.72 119.98 L17.72 119.98 Z" class="st5"/>
				</g>
				<g id="shape7077-13" transform="translate(28.4899,0)">
					<title>path12</title>
					<path d="M19.65 119.98 C19.65 120.09 19.64 120.19 19.61 120.3 C19.6 120.41 19.57 120.47 19.56 120.56 L19.47 120.86
								 C19.44 120.95 19.41 121.02 19.38 121.1 L19.24 121.42 C19.18 121.53 19.08 121.74 18.99 121.85 L18.94
								 121.91 L18.63 122.33 L18.57 122.4 L18.16 122.82 A4.54149 4.649 0 0 1 17.84 123.07 L17.57 123.3 C17.48
								 123.37 17.34 123.45 17.21 123.53 L16.84 123.78 A9.57445 9.80112 0 0 1 15.91 124.26 L15.6 124.39
								 L14.83 124.69 L14.55 124.78 L14.04 124.93 L13.65 125.04 L13.11 125.15 L12.74 125.23 L11.62 125.39
								 L11.26 125.42 L10.6 125.47 L9.19 125.47 C9.02 125.47 8.85 125.47 8.69 125.44 C8.53 125.4 8.38 125.41
								 8.24 125.4 L7.75 125.34 L7.31 125.28 L6.79 125.18 L6.38 125.1 L5.76 124.95 L5.43 124.85 L4.37 124.48
								 L3.87 124.27 L3.62 124.16 L2.9 123.77 A4.91787 5.0343 0 0 1 0 119.63 L0 124.11 A4.92098 5.03748
								 -180 0 0 2.9 128.25 L3.62 128.63 L3.87 128.74 L4.31 128.94 L4.37 128.96 C4.72 129.09 5.07 129.22
								 5.43 129.32 L5.51 129.35 L5.76 129.42 L6.38 129.58 C6.44 129.58 6.49 129.61 6.55 129.61 L6.8 129.66
								 L7.32 129.75 C7.39 129.75 7.45 129.78 7.52 129.79 L7.76 129.82 L8.25 129.88 L8.48 129.9 L8.7 129.9
								 C8.86 129.9 9.03 129.92 9.2 129.93 L10.61 129.93 C10.83 129.93 11.05 129.89 11.28 129.88 C11.36
								 129.88 11.45 129.88 11.54 129.86 L11.62 129.86 L12.74 129.7 L12.8 129.7 L13.11 129.63 L13.65 129.51
								 L14.04 129.41 L14.55 129.26 L14.65 129.23 L14.83 129.16 L15.6 128.86 L15.91 128.74 A10.3334 10.5781
								 -180 0 0 16.84 128.26 L16.97 128.19 C17.06 128.13 17.14 128.07 17.22 128.01 L17.57 127.77 L17.85
								 127.55 L18.16 127.29 L18.22 127.24 A4.76545 4.87827 -180 0 0 18.57 126.88 L18.63 126.8 L18.82 126.58
								 L18.95 126.39 L19 126.33 L19.21 126.01 L19.25 125.93 C19.31 125.83 19.34 125.73 19.39 125.61 L19.48
								 125.43 L19.48 125.37 C19.51 125.26 19.53 125.16 19.56 125.06 L19.62 124.86 L19.62 124.8 C19.64 124.7
								 19.64 124.59 19.65 124.49 C19.66 124.38 19.68 124.35 19.68 124.28 L19.68 119.73 C19.7 119.81 19.68
								 119.91 19.67 120.01 L19.65 119.98 Z" class="st4"/>
				</g>
				<g id="shape7078-15" transform="translate(27.5169,-4.43519)">
					<title>path14</title>
					<path d="M17.72 119.98 A4.2522 4.35287 0 0 1 17.76 128.22 A15.3073 15.6697 0 0 1 3.87 128.22 C0.02 125.94 0 122.25
								 3.83 119.98 A15.3104 15.6729 0 0 1 17.73 119.98 L17.72 119.98 Z" class="st5"/>
				</g>
				<g id="shape7079-17" transform="translate(28.4468,-9.75338)">
					<title>path16</title>
					<path d="M19.72 119.69 C19.72 119.79 19.71 119.89 19.69 119.99 L19.66 120.31 C19.64 120.41 19.61 120.48 19.6
								 120.56 L19.52 120.86 C19.48 120.95 19.46 121.02 19.42 121.1 L19.28 121.42 C19.22 121.53 19.13 121.74
								 19.03 121.85 L18.98 121.91 L18.67 122.33 L18.61 122.4 A6.40785 6.55955 0 0 1 18.2 122.82 A4.54149
								 4.649 0 0 1 17.89 123.08 L17.61 123.3 L17.26 123.54 L16.88 123.79 A9.92595 10.1609 0 0 1 15.95 124.26
								 L15.64 124.39 L14.86 124.69 L14.55 124.79 L14.05 124.94 L13.66 125.04 L13.12 125.16 L12.74 125.24
								 L11.62 125.39 L11.27 125.43 L10.61 125.47 L9.2 125.47 C9.03 125.47 8.86 125.47 8.7 125.44 C8.53
								 125.41 8.39 125.42 8.25 125.4 L7.75 125.34 L7.32 125.28 L6.8 125.18 L6.39 125.1 L5.77 124.94 L5.43
								 124.85 C5.07 124.74 4.72 124.62 4.38 124.48 L3.88 124.27 L3.62 124.16 L2.9 123.77 A4.92409 5.04067
								 0 0 1 -0 119.63 L0 124.11 A4.92409 5.04067 -180 0 0 2.9 128.25 L3.62 128.63 L3.87 128.74 L4.32 128.94
								 L4.36 128.96 L5.42 129.32 L5.51 129.36 L5.75 129.42 L6.38 129.57 C6.43 129.57 6.48 129.61 6.54 129.61
								 L6.78 129.66 L7.3 129.75 C7.38 129.75 7.44 129.78 7.51 129.79 L7.74 129.82 L8.23 129.88 L8.47 129.9
								 L8.69 129.9 C8.85 129.9 9.02 129.92 9.18 129.93 L10.59 129.93 C10.82 129.93 11.04 129.9 11.26 129.88
								 C11.34 129.88 11.44 129.88 11.53 129.86 L11.61 129.86 L12.73 129.7 L12.79 129.7 L13.1 129.63 L13.64
								 129.51 L14.03 129.41 L14.54 129.26 L14.64 129.23 C14.7 129.21 14.76 129.18 14.81 129.16 L15.59 128.86
								 L15.9 128.74 A9.95394 10.1896 -180 0 0 16.84 128.26 L16.95 128.19 L17.21 128.01 L17.56 127.77 L17.84
								 127.55 L18.15 127.3 L18.21 127.24 A5.44356 5.57244 -180 0 0 18.56 126.88 L18.62 126.8 L18.81 126.57
								 L18.94 126.39 L18.99 126.32 A3.67052 3.75741 -180 0 0 19.21 125.97 L19.24 125.9 C19.3 125.79 19.34
								 125.69 19.39 125.58 L19.47 125.4 L19.47 125.33 A3.20393 3.27978 -180 0 0 19.55 125.03 L19.61 124.83
								 L19.61 124.78 C19.63 124.67 19.63 124.56 19.64 124.46 C19.65 124.35 19.67 124.32 19.67 124.25 L19.67
								 124.16 L19.72 119.69 Z" class="st4"/>
				</g>
				<g id="shape7080-19" transform="translate(-81.5433,115.262) rotate(-89.838)">
					<title>ellipse18</title>
					<ellipse cx="5.69241" cy="119.867" rx="5.69241" ry="10.059" class="st5"/>
				</g>
			</g>
		</g>
	</g>
</svg>
